X:1
T:O, We Are Volunteers
T:O, We Are Volunteers
T:George Frederick Root
T:George Frederick Root, 1862
T:Public Domain Courtesy of the Cyber Hymnal™
T:Public Domain Courtesy of the Cyber Hymnal™
C:George Frederick Root
Z:Public Domain
Z:Courtesy of the Cyber Hymnal™
%%score ( 1 2 ) 3
L:1/8
Q:1/4=95
M:4/4
K:G
V:1 treble 
V:2 treble 
V:3 bass 
V:1
 D2 | [B,G][B,G][B,G][B,G] [A,F]2 DD | [CA][CA][CA][CA] [B,G]4 | %3
w: 1.~O,|we are vol- un- teers in the|ar- my of the Lord,|
w: 2.~The|glo- ry of our flag is the|em- blem of the dove,|
w: 3.~Our|foes are in the field, press- ing|hard on ev- ery side,|
w: 4.~Oh,|glor- ious is the strug- gle in|which we draw the sword,|
 [DB][DB][DB][DB] ([Ec][DB])[CA][B,G] | [A,F]2 [B,G]2 [CA]2 DD | [B,G][B,G][B,G][B,G] [A,F]2 DD | %6
w: Form- ing in- to line * at our|Cap- tain’s word; We are|un- der march- ing or- ders to|
w: Gleam- ing are our swords * from the|forge of love; We go|forth, but not to bat- tle for|
w: En- vy, an- ger, hat- * red, with|self and pride; They are|cru- el, fierce and strong, ev- er|
w: Glor- ious is the king- * dom of|Christ, our Lord; It shall|spread from sea to sea, it shall|
 [CA][CA][CA][CA] [B,G]2 [CA][DB] | [Ec][Ec][Ec][Ec] [DB]2 [CA][CA] | [B,G]2 [A,F]2 [B,G]2 z2 || %9
w: take the bat- tle- field, And we’ll|ne’er give o’er the fight till the|foe shall yield.|
w: earth- ly hon- ors vain, ’Tis a|bright im- mor- tal crown that we|seek to gain.|
w: rea- dy to at- tack, We must|watch and fight and pray if we’d|drive them back.|
w: reach from shore to shore, And His|peo- ple shall be bless- èd for|ev- er- more.|
"^Refrain" [^DB]>[DB] [DB][DA] [EG]2 E[EG] | [^DB]>[DB] [DB][DA] [EG]4 | %11
w: ||
w: ||
w: ||
w: ||
 [Fd]>[Fd] [Fd][Fc] [GB]2 G[GB] | [Fd]>[Fd] [Fd][Fc] [GB]4 | [GB][GB][GB][GB] [FA]2 [FA]2 | %14
w: |||
w: |||
w: |||
w: |||
 [EG][EG][EG][EG] [^DF]4 | [CE][CE][CE][CE] [B,D][B,G][DG][EA] | [DB]2 [CA]2 [B,G]2 |] %17
w: |||
w: |||
w: |||
w: |||
V:2
 D2 | x6 DD | x8 | x8 | x6 DD | x6 DD | x8 | x8 | x8 || x6 E x | x8 | x6 G x | x8 | x8 | x8 | x8 | %16
 x6 |] %17
V:3
 D,2 | G,,A,,B,,C, D,2 D,D, | D,E,F,D, G,4 | G,G,G,G, G,2 G,G, | D,2 D,2 D,2 D,D, | %5
w: ~|~ ~ ~ ~ ~ ~ ~|~ ~ ~ ~ ~|~ ~ ~ ~ ~ ~ ~|~ ~ ~ ~ ~|
 G,,A,,B,,C, D,2 D,D, | D,E,F,D, G,2 G,G, | C,D,E,F, G,2 C,C, | D,2 D,2 G,,2 z2 || %9
w: ~ ~ ~ ~ ~ ~ ~|~ ~ ~ ~ ~ ~ ~|~ ~ ~ ~ ~ ~ ~|~ ~ ~|
 B,,>B,, B,,B,, E,2 E,E, | B,,>B,, B,,B,, E,4 | D,>D, D,D, G,2 G,G, | D,>D, D,D, G,4 | %13
w: Come and join the ar- my, the|ar- my of the Lord,|Je- sus is our Cap- tain, we|ral- ly at His word;|
 G,,A,,B,,C, D,2 D,2 | E,F,G,A, (B,2 B,,2) | C,D,E,F, G,G,B,,C, | D,2 D,2 G,,2 |] %17
w: Sharp will be the con- flict|with the powers of sin, *|But with such a lead- er, we are|sure to win.|

